Numix-GalliumOS/48/status/appointment-missed.svg

<?xml version="1.0" encoding="UTF-8" standalone="no"?>
<svg
   xmlns:dc="http://purl.org/dc/elements/1.1/"
   xmlns:cc="http://creativecommons.org/ns#"
   xmlns:rdf="http://www.w3.org/1999/02/22-rdf-syntax-ns#"
   xmlns:svg="http://www.w3.org/2000/svg"
   xmlns="http://www.w3.org/2000/svg"
   xmlns:sodipodi="http://sodipodi.sourceforge.net/DTD/sodipodi-0.dtd"
   xmlns:inkscape="http://www.inkscape.org/namespaces/inkscape"
   width="48"
   height="48"
   viewBox="0 0 48 48"
   id="svg2"
   version="1.1"
   inkscape:version="0.91 r13725"
   sodipodi:docname="appointment-missed.svg">
  <metadata
     id="metadata14">
    <rdf:RDF>
      <cc:Work
         rdf:about="">
        <dc:format>image/svg+xml</dc:format>
        <dc:type
           rdf:resource="http://purl.org/dc/dcmitype/StillImage" />
        <dc:title />
      </cc:Work>
    </rdf:RDF>
  </metadata>
  <defs
     id="defs12" />
  <sodipodi:namedview
     pagecolor="#ffffff"
     bordercolor="#666666"
     borderopacity="1"
     objecttolerance="10"
     gridtolerance="10"
     guidetolerance="10"
     inkscape:pageopacity="0"
     inkscape:pageshadow="2"
     inkscape:window-width="1366"
     inkscape:window-height="704"
     id="namedview10"
     showgrid="false"
     inkscape:zoom="8"
     inkscape:cx="32.117971"
     inkscape:cy="14"
     inkscape:window-x="0"
     inkscape:window-y="27"
     inkscape:window-maximized="1"
     inkscape:current-layer="svg2" />
  <path
     style="opacity:1;fill:#ebebeb;fill-rule:evenodd;fill-opacity:1"
     d="M 42,24 C 42,33.942188 33.942187,42 24,42 14.057813,42 6,33.942188 6,24 6,14.057812 14.057813,6 24,6 c 9.942187,0 18,8.057812 18,18 z"
     id="path4"
     inkscape:connector-curvature="0" />
  <path
     style="fill:#aaaaaa;opacity:1;fill-opacity:1"
     d="M 23.96875 10.96875 C 22.867188 10.984375 21.984375 11.898438 22 13 L 22 24 C 22 24.46875 22.164062 24.921875 22.46875 25.28125 L 27.46875 31.28125 C 27.914062 31.882812 28.648438 32.179688 29.382812 32.070312 C 30.117188 31.953125 30.726562 31.445312 30.96875 30.742188 C 31.210938 30.039062 31.039062 29.257812 30.53125 28.71875 L 26 23.28125 L 26 13 C 26.007812 12.460938 25.796875 11.9375 25.414062 11.554688 C 25.03125 11.171875 24.507812 10.960938 23.96875 10.96875 Z "
     id="path6" />
  <path
     style="fill:#aaa;opacity:1"
     d="M 24 4 C 12.976562 4 4 12.976562 4 24 C 4 35.023438 12.976562 44 24 44 C 35.023438 44 44 35.023438 44 24 C 44 12.976562 35.023438 4 24 4 Z M 24 8 C 32.859375 8 40 15.140625 40 24 C 40 32.859375 32.859375 40 24 40 C 15.140625 40 8 32.859375 8 24 C 8 15.140625 15.140625 8 24 8 Z "
     id="path8" />
  <g
     transform="matrix(0.49999998,0,0,0.49999998,8e-8,24.000001)"
     style="fill-rule:evenodd"
     id="g4">
    <path
       inkscape:connector-curvature="0"
       style="fill:#dc322f"
       d="M 44,24 C 44,35.046875 35.046875,44 24,44 12.953125,44 4,35.046875 4,24 4,12.953125 12.953125,4 24,4 35.046875,4 44,12.953125 44,24 Z"
       id="path6-1" />
    <path
       inkscape:connector-curvature="0"
       style="fill:#ffffff"
       d="m 14.011719,14 0,3.332031 c -0.07422,0.9375 0.238281,1.890625 0.941406,2.539063 l 4.273437,4.203125 -4.273437,4.203125 c -0.628906,0.625 -0.941406,1.507812 -0.941406,2.390625 l 0,3.332031 3.332031,0 c 0.878906,0 1.761719,-0.316406 2.386719,-0.941406 l 4.273437,-4.277344 4.273438,4.277344 C 28.902344,33.683594 29.785156,34 30.667969,34 L 34,34 34,30.667969 c 0,-0.882813 -0.316406,-1.765625 -0.941406,-2.390625 l -4.199219,-4.203125 4.273437,-4.203125 C 33.847656,19.207031 34,18.289062 34,17.332031 L 34,14 30.667969,14 c -0.800781,0.02344 -1.433594,0.320312 -2.316407,1.085938 l -4.347656,4.203124 -4.273437,-4.203124 C 19.140625,14.476562 18.335938,14.039062 17.488281,14 17.453125,14 17.375,14 17.34375,14 Z"
       id="path8-5" />
    <path
       inkscape:connector-curvature="0"
       style="fill:#dc322f;fill-opacity:0.10199998"
       d="m 14.011719,14 0,3.332031 c -0.07422,0.9375 0.238281,1.890625 0.941406,2.539063 l 4.273437,4.203125 -4.273437,4.203125 c -0.628906,0.625 -0.941406,1.507812 -0.941406,2.390625 l 0,3.332031 3.332031,0 c 0.878906,0 1.761719,-0.316406 2.386719,-0.941406 l 4.273437,-4.277344 4.273438,4.277344 C 28.902344,33.683594 29.785156,34 30.667969,34 L 34,34 34,30.667969 c 0,-0.882813 -0.316406,-1.765625 -0.941406,-2.390625 l -4.199219,-4.203125 4.273437,-4.203125 C 33.847656,19.207031 34,18.289062 34,17.332031 L 34,14 30.667969,14 c -0.800781,0.02344 -1.433594,0.320312 -2.316407,1.085938 l -4.347656,4.203124 -4.273437,-4.203124 C 19.140625,14.476562 18.335938,14.039062 17.488281,14 17.453125,14 17.375,14 17.34375,14 Z"
       id="path10-8" />
  </g>
</svg>

<svg xmlns="http://www.w3.org/2000/svg" viewBox="0 0 48 48">
 <path d="m 42 24 c 0 9.942 -8.06 18 -18 18 -9.942 0 -18 -8.06 -18 -18 0 -9.942 8.06 -18 18 -18 c 9.942 0 18 8.06 18 18 z" style="fill:#ebebeb;opacity:1;fill-opacity:1;fill-rule:evenodd"/>
 <path d="m 23.969 10.969 c -1.102 0.016 -1.984 0.93 -1.969 2.031 l 0 11 c 0 0.469 0.164 0.922 0.469 1.281 l 5 6 c 0.445 0.602 1.18 0.898 1.914 0.789 c 0.734 -0.117 1.344 -0.625 1.586 -1.328 c 0.242 -0.703 0.07 -1.484 -0.438 -2.023 l -4.531 -5.438 l 0 -10.281 c 0.008 -0.539 -0.203 -1.063 -0.586 -1.445 c -0.383 -0.383 -0.906 -0.594 -1.445 -0.586 Z" style="fill:#aaa;opacity:1;fill-opacity:1"/>
 <path d="m 24 4 c -11.02 0 -20 8.977 -20 20 c 0 11.02 8.977 20 20 20 c 11.02 0 20 -8.977 20 -20 c 0 -11.02 -8.977 -20 -20 -20 m 0 4 c 8.859 0 16 7.141 16 16 c 0 8.859 -7.141 16 -16 16 c -8.859 0 -16 -7.141 -16 -16 c 0 -8.859 7.141 -16 16 -16 Z" style="fill:#aaa;opacity:1"/>
 <g transform="matrix(0.49999998,0,0,0.49999998,8e-8,24.000001)" style="fill-rule:evenodd">
  <path d="m 44 24 c 0 11.05 -8.953 20 -20 20 -11.05 0 -20 -8.953 -20 -20 0 -11.05 8.953 -20 20 -20 11.05 0 20 8.953 20 20" style="fill:#dc322f"/>
  <path d="m 14.01 14 0 3.332 c -0.074 0.938 0.238 1.891 0.941 2.539 l 4.273 4.203 -4.273 4.203 c -0.629 0.625 -0.941 1.508 -0.941 2.391 l 0 3.332 3.332 0 c 0.879 0 1.762 -0.316 2.387 -0.941 l 4.273 -4.277 4.273 4.277 c 0.625 0.625 1.508 0.941 2.391 0.941 l 3.332 0 0 -3.332 c 0 -0.883 -0.316 -1.766 -0.941 -2.391 l -4.199 -4.203 4.273 -4.203 c 0.715 -0.664 0.867 -1.582 0.867 -2.539 l 0 -3.332 -3.332 0 c -0.801 0.023 -1.434 0.32 -2.316 1.086 l -4.348 4.203 -4.273 -4.203 c -0.59 -0.609 -1.395 -1.047 -2.242 -1.086 -0.035 0 -0.113 0 -0.145 0" style="fill:#fff"/>
  <path d="m 14.01 14 0 3.332 c -0.074 0.938 0.238 1.891 0.941 2.539 l 4.273 4.203 -4.273 4.203 c -0.629 0.625 -0.941 1.508 -0.941 2.391 l 0 3.332 3.332 0 c 0.879 0 1.762 -0.316 2.387 -0.941 l 4.273 -4.277 4.273 4.277 c 0.625 0.625 1.508 0.941 2.391 0.941 l 3.332 0 0 -3.332 c 0 -0.883 -0.316 -1.766 -0.941 -2.391 l -4.199 -4.203 4.273 -4.203 c 0.715 -0.664 0.867 -1.582 0.867 -2.539 l 0 -3.332 -3.332 0 c -0.801 0.023 -1.434 0.32 -2.316 1.086 l -4.348 4.203 -4.273 -4.203 c -0.59 -0.609 -1.395 -1.047 -2.242 -1.086 -0.035 0 -0.113 0 -0.145 0" style="fill:#dc322f;fill-opacity:0.102"/>
 </g>
</svg>
